X:1
T:Title
%%score ( 1 2 ) ( 3 4 )
L:1/8
Q:1/4=100
M:4/4
K:C
V:1 treble nm="Choir Aahs, Staff"
V:2 treble 
V:3 bass nm="Choir Aahs, Staff-1"
V:4 bass 
V:1
 [EA]2 [FA]2 [EA]2 [Ec]2 | [FA]2 [EG]2 [DF]2 [B,E]2 | [Ec]2 [DB]2 [B,A]2 [CG]2 | %3
w: By~Psalmebog,~1569;~Hanz~Thomisson * * *|||
 [CE]2 [CF]2 [B,D]2 C2 | [Cc]2 [GB]2 [Gc]2 [Gd]2 | [GB]2 A2- [^FA]2 G2 | [DG]2 [DE]2 [CE]2 [CG]2 | %7
w: ||||
 [DF]2 [CE]2 [B,D]2 C2 | [DG]2 [CG]2 [FG]2 [EA]2 | [EB]2 [EA]2 [D^G]2 [CA]2 | %10
w: |||
 [Cc]2 [DB]2 [DA]2 [DG]2 | z2 F4 z2 | [Ec]2 [GB]2 [FA]2 [EG]2 | [CE]2 [A,D]4 [B,E]2 |] %14
w: ||||
V:2
 x8 | x8 | x8 | x8 | x8 | z2 G2 z4 | x8 | x8 | x8 | x8 | x8 | [CA]2 C2 B,2 [CE]2 | x8 | x8 |] %14
V:3
 [A,,C]2 [D,D]2 [C,E]2 [A,,C]2 | C2 z2 z4 | [C,A,]2 [D,F,]2 [D,F,]2 E,2 | %3
 [C,G,]2 [D,F,]2 [G,,F,]2 [C,E,]2 | [E,G,]2 [D,D]2 [C,E]2 [B,,D]2 | [G,,D]2 [D,C]4 [G,,B,]2 | %6
 [B,,G,]2 [C,G,]2 [E,G,]2 [A,,A,]2 | [B,,G,]2 [C,G,]2 [G,,F,]2 [C,E,]2 | %8
 [F,B,]2 [E,C]2 [D,B,]2 [C,C]2 | [^G,,D]2 [A,,C]2 [E,B,]2 [F,A,]2 | %10
 [E,G,]2 [D,F,]2 [C,F,]2 [B,,F,]2 | [C,E,]2 [D,F,]2 [G,,G,]2 [C,G,]2 | %12
 [A,,C]2 [B,,D]2 [B,,D]2 [C,E]2 | [E,G,]2 [F,A,]4 [E,^G,]2 |] %14
V:4
 x8 | A,,B,, [C,C]2 [D,A,]2 [E,^G,]2 | x8 | x8 | x8 | x8 | x8 | x8 | x8 | x8 | x8 | x8 | x8 | x8 |] %14

